X:1
T:Vias tuas, Domine
T:Antoine Brumel
T:Source : Bicinia---Tomus I---Wittemberg---G.Rhau---1545. Editor : André Vierendeels (13/05/17).
T:Notes : Original clefs : C4, F4 ( F3 from m34 to m38) Original note values have been halved Editorial accidentals above the staff Dotted brackets indicate black notes 
T:Vias tuas, Domine
T:©
T:©
T:©
C:Antoine Brumel
Z:©
%%score [ 1 2 ]
L:1/8
Q:1/4=120
M:4/4
K:F
V:1 treble-8 nm="Tenor" snm="T"
V:2 bass nm="Bass" snm="B"
V:1
 F4 A2 A2 | AGFE F4 | z2 c2- cBAG | B2 A2- AG G2- | G2 F2 G2 B2 | B2 AG F2 f2- | fe d4 c2 | %7
w: Vi- as tu-|* * * * as,|Do- * * * *|* * * mi- ne,|_ de- * *|mon- * * * *|* * * stra|
 f3 e dc d2- | dcBA G2 c2- | c2 B2 A2 G2- | GF/E/ D2 C2 G2- | GF F4 E2 | F2 c4 d2- | dcBA G2 c2 | %14
w: mi- * * * *|* * * * hi, et|_ se- mi- tas|_ _ _ tu- as e-|* * do- ce|me, di- ri-|* * * * ge me|
 defd e3 d | e2 d2 f2 e2- | e2 d4 c2 | d3 c BA c2- | c2 B2 A3 G/F/ | G4 F4- | F4 z2 C2 | %21
w: in _ _ _ ve- *|* ri- ta- te|_ _ tu-|a, _ _ _ et|_ do- ce _ _|_ me,|_ qui-|
 D2 E2 F2 G2- | GFGA B2 c2- | cBAG B2 A2 | G3 A B2 A2- | AG FE DC F2- | F2 E2 F4 | z2 c2 c2 c2 | %28
w: a tu es De-|* * * * us, sal-|* * * * va- tor|me- * us, te|_ _ _ _ _ _ su-|* sti- nui,|re- spi- ce|
 A4 z2 d2 | d2 d2 dcBA | G4 z2 c2 | c2 c2 cBAG | F4 z2 f2 | f2 f2 edcB | AG d2- dc c2- | %35
w: me, re-|spi- ce me _ _ _|_ qui-|a u- ni- * * *|cus, et|pau- per sum _ _ _|_ _ e- * * *|
"^-natural" c2 B2 c4 | z2 A2 A2 A2 | BAGF ED G2- | GF F2- FE ED | F2 c2 c2 c2 | dcBA GFED | %41
w: * * go,|cu- sto- di|a- * * * * * ni-|* mam me- * * * *|am, quo- ni- am|in _ _ _ _ _ _ _|
 E2 F2 G4 | F8 |] %43
w: te spe- ra-|vi.|
V:2
 z8 | F,4 A,2 A,2 | A,G,F,E, F,2 C,2 | D,3 C, B,,2 C,2 | A,,4 G,,4 | z2 G,2 A,3 G, | F,2 G,2 E,4 | %7
w: |Vi- as tu-|a _ _ _ Do- *||mi- ne|de- mon- *|* stra mi-|
 D,4 z2 F,2 | G,3 F, E,2 F,2 | D,4 C,4 | z2 B,,2 C,3 B,, | A,,2 B,,2 G,,4 | F,,4 z2 F,2 | %13
w: hi, et|se- * mi- tas|tu- as|do- * *|* * ce|me, di-|
 G,3 F, E,2 F,2 | D,4 C,4 | z2 G,2 A,3 G, | F,2 G,2 E,4 | D,2 G,3 F, E,D, | E,2 D,2 C,2 F,2- | %19
w: ri- * * *|ge me|in ve- *|* ri- ta-|te tu- * * *|a, et do- ce-|
 F,E, E,D, F,4 | z2 F,,3 G,, A,,2 | B,,2 C,2 F,,2 C,2- | C,D,E,F, G,2 A,2- | A,G,F,E, D,C, F,2- | %24
w: * * * * me,|qui- a tu|es De- us, sal-|* * * * * va-|* * * * * * tor|
 F,2 E,2 D,2 F,2- | F,E, D,C, B,,2 A,,2 | G,,4 F,,4- | F,,4 z2 F,2 | F,2 F,2 D,4 | z2 G,2 G,2 G,2 | %30
w: _ me- us, te|_ _ su- * * sti-|nu- i,|_ re-|spi- ce me|mi- se- re-|
 G,F, E,D, C,4 | z2 F,2 F,2 F,2 | F,E,D,C, B,,C,D,E, | F,G,A,B, CB,A,G, | F,E,D,C, B,,2 C,2 | %35
w: re _ me- * i|qui- a u-|ni- * * * cus _ _ _|et _ _ _ pau- * * *|per _ _ _ _ sum|
 D,4 C,4 | z2 F,2 F,2 F,2 | G,F,E,D, C,B,,A,,G,, | B,,2 A,,2 G,,4 | F,,2 A,2 A,2 A,2 | %40
w: e- go,|cu- sto- di|a- * * * * * * *|ni- mam me-|am, quo- ni- am|
 B,A,G,F, E,D, G,2- | G,F, F,3 E, E,D, | F,8 |] %43
w: in _ _ _ _ _ te-|* * spe- * ra- *|vi.|

